X: 3
T: Big Scioty
R: reel
N: Named after the Scioto River in Ohio. Also spelled Sciota, Sciote, Scioty.
Z: 2009 John Chambers <jc:trillian.mit.edu>
F: http/www.ibiblio.org/fiddlers/BI_BILE.htm
M: C|
L: 1/8
K: G
   DE \
| GABG AGED | EDEF G2 (3DEF | GABG AGED | EDEF G2G2 |
| GFGA Bcd2 | e3f e2d2 | BAGB AGEG | EG2F G2 :|
|: ze \
| gfga gedg | egab a3e | gfga gedc | Bdef e3e |
| efgf edBd | Be2f e2e2 | BAGB AGED | DG2F G2 :|

%%sep 5 1 500

